X:1
T:Come holy spirit
T:Come holy spirit 
T:Edmund Hooper
T:Source : The Whole Book of Psalms---London---Th.Est(e)---1592. Editor : André Vierendeels (18/09/16).
T:©
T:©
T:©
C:Edmund Hooper
Z:©
%%score [ 1 [ 2 3 ] 4 ]
L:1/8
Q:1/4=120
M:2/2
K:F
V:1 treble nm="Soprano" snm="S"
V:2 treble-8 nm="Tenor 1" snm="T 1"
V:3 treble-8 nm="Tenor 2" snm="T 2"
V:4 bass nm="Bass" snm="B"
V:1
 G4 G4- | G4 G4 | ^F8 | G8 | A6 c2 | =B8 || G4 d4- | d4 d4 | d8 | c4 d4- | d4 z4 || D4 F4 | %12
w: Come ho-|* ly|sp'rit,|the|God of|might,|con- for-|* ter|of|us all:|_|teach us|
 G4 A4- | A4 G4 | ^F8 |[M:3/2] B4 A8 || d4 c8 |[M:2/2] _e4 d4- | d2 c2 A4 | =B8 |] %20
w: to know|_ thy|word|a- right,|that wee|doe ne-|* * ver|fall.|
V:2
 _e4 d4- | d4 c4 | d8 | d4 c4- | c4 A4 | d8 || d4 ^f4- | f4 g4 | ^f8 | g4 ^f4- | f4 z4 || %11
w: Come ho-|* ly|sp'rit,|the God|_ of|might,|con- for-|* ter|of|us all:|_|
"^-natural" f4 d4 | d4 f4- | f4 d4 | d8 |[M:3/2] d4 d8 || f4 c8 |[M:2/2] c4 g4- | g4 ^f4 | g8 |] %20
w: teach us|to know|_ thy|word|a- right,|that wee|doe ne-|* ver|fall.|
V:3
 G4 B4- | B4 G4 | A8 | G4 E4 | ^F8 | G8 ||"^b" B4 A4- | A4 B4 | A8 | G4 A4- | A4 z4 || A4 A4 | %12
w: Come ho-|* ly|sp'rit,|the God|of|might,|con- for-|* ter|of|us all:|_|teach us|
 B4 c4- | c4 B4 | A8 |[M:3/2] G4 ^F8 || B4 A8 |[M:2/2] G4 B4 | A8 | G8 |] %20
w: to know|_ thy|word|a- right,|that wee|doe ne-|ver|fall.|
V:4
 C,4 G,4- | G,4 _E,4 | D,8 | =B,,4 C,4 | A,,8 | G,,8 || G,4 D,4- | D,4 G,,4 | D,8 | _E,4 D,4- | %10
w: Come ho-|* ly|sp'rit,|the God|of|might,|con- for-|* ter|of|us all:|
 D,4 z4 || D,4 D,4 | G,4 F,4- | F,4 G,4 | D,8 |[M:3/2] G,,4 D,8 || B,,4 F,8 |[M:2/2] C,4 G,,4 | %18
w: _|teach us|to know|_ thy|word|a- right,|that wee|doe ne-|
 D,8 | G,,8 |] %20
w: ver|fall.|

